media/improvmx.svg

<?xml version="1.0" encoding="UTF-8" standalone="no" ?>
<svg xmlns="http://www.w3.org/2000/svg" xmlns:xlink="http://www.w3.org/1999/xlink" version="1.1" width="1080" height="1080" viewBox="0 0 1080 1080" xml:space="preserve">
<desc>Created with Fabric.js 5.2.4</desc>
<g transform="matrix(1 0 0 1 540 540)" id="07b61ec0-60fc-4cfb-ab5d-9d5af85365e9"  >
<rect style="stroke: none; stroke-width: 1; stroke-dasharray: none; stroke-linecap: butt; stroke-dashoffset: 0; stroke-linejoin: miter; stroke-miterlimit: 4; fill: rgb(255,255,255); fill-rule: nonzero; opacity: 1; visibility: hidden;" vector-effect="non-scaling-stroke"  x="-540" y="-540" rx="0" ry="0" width="1080" height="1080" />
</g>
<g transform="matrix(1 0 0 1 540 540)" id="e3f66f42-bbd2-4eb4-9578-25b9fc8125dd"  >
</g>
<g transform="matrix(45 0 0 45 540 540)" id="Improvmx--Streamline-Simple-Icons"  >
<path style="stroke: none; stroke-width: 1; stroke-dasharray: none; stroke-linecap: butt; stroke-dashoffset: 0; stroke-linejoin: miter; stroke-miterlimit: 4; fill: rgb(60,182,239); fill-rule: nonzero; opacity: 1;"  transform=" translate(-12, -12)" d="M 12.043 7.203 L 7.326 9.757 L 7.309 4.75 L 8.969 4.75 L 15.099 4.724 L 16.759 4.724 L 16.768 9.722000000000001 z M 13.763 1.3280000000000003 L 13.770999999999999 3.4050000000000002 L 10.288999999999998 3.414 L 10.288999999999998 1.337 L 13.761999999999997 1.337 z M 18.104 10.437999999999999 L 18.079 3.3969999999999985 L 15.099 3.3969999999999985 L 15.09 0 L 8.96 0.017 L 8.96 3.4219999999999997 L 5.98 3.4219999999999997 L 5.998 10.463000000000001 L 3.2310000000000003 11.962000000000002 L 4.151000000000001 15.282000000000002 C 4.6143871249862976 15.248941107175757 5.080068904569452 15.271771937032753 5.538000000000001 15.350000000000001 L 4.788 12.626000000000001 L 11.378 9.067 L 11.396 17.615000000000002 L 12.724 17.615000000000002 L 12.698 9.067000000000002 L 19.313000000000002 12.592000000000002 L 18.598000000000003 15.248000000000003 C 19.048113549424 15.223881713995523 19.499503814311225 15.252408236311815 19.942999999999998 15.333000000000002 L 20.880000000000003 11.919000000000004 L 18.096000000000004 10.438000000000004 z M 15.293999999999999 18.092 C 14.425365773375425 18.971928082364613 13.240446056161584 19.467227070745245 12.003999999999998 19.467227070745245 C 10.767553943838411 19.467227070745245 9.582634226624572 18.971928082364613 8.713999999999999 18.092 C 6.391482985475376 15.7766332106411 2.633517014524619 15.776633210641101 0.3109999999999964 18.092 L 1.2209999999999983 19.002 C 3.0392140056195664 17.18598846735967 5.984785994380429 17.18598846735967 7.802999999999998 19.002 C 8.912644670135784 20.121205700083834 10.423951466093587 20.749926611625966 12 20.748 C 13.576048533906409 20.74992661162597 15.087355329864213 20.121205700083838 16.196999999999996 19.002000000000002 C 18.01509909169235 17.186654225441348 20.95990090830765 17.186654225441348 22.778 19.002000000000002 L 23.689 18.092000000000002 C 21.36648298547538 15.776633210641103 17.608517014524622 15.776633210641105 15.285999999999998 18.092000000000002 M 15.295 21.344 C 14.4263278999739 22.22423747877763 13.241192862601121 22.719733649667774 12.0045 22.719733649667774 C 10.76780713739888 22.719733649667774 9.582672100026098 22.22423747877763 8.713999999999999 21.344 C 7.807876097760988 20.444282993922045 6.63324698734379 19.864340587942003 5.3679999999999986 19.692 L 5.3679999999999986 20.978 C 6.252999999999998 21.148000000000003 7.112999999999999 21.574 7.802999999999999 22.255000000000003 C 8.912809849186653 23.37383870561324 10.424096084733634 24.002190976528055 12 24 C 13.575903915266366 24.002190976528055 15.087190150813349 23.373838705613238 16.197 22.255 C 16.827519059835584 21.62775258742988 17.62588468621834 21.196100358811456 18.495999999999995 21.012 L 18.496 19.709 C 17.281924518495657 19.906667715729554 16.159779222730627 20.478227702824828 15.285999999999992 21.344000000000005" stroke-linecap="round" />
</g>
<g transform="matrix(NaN NaN NaN NaN 0 0)"  >
<g style=""   >
</g>
</g>
</svg>

<svg role="img" viewBox="0 0 24 24" xmlns="http://www.w3.org/2000/svg" id="Improvmx--Streamline-Simple-Icons" height="24" width="24"><desc>Improvmx Streamline Icon: https://streamlinehq.com</desc><title>ImprovMX</title><path d="M12.043 7.203 7.326 9.757 7.309 4.75h1.66l6.13 -0.026h1.66l0.009 4.998zm1.72 -5.875 0.008 2.077 -3.482 0.009V1.337h3.473zm4.341 9.11 -0.025 -7.041h-2.98L15.09 0 8.96 0.017v3.405H5.98l0.018 7.041 -2.767 1.499 0.92 3.32a5.79 5.79 0 0 1 1.387 0.068l-0.75 -2.724 6.59 -3.559 0.018 8.548h1.328l-0.026 -8.548 6.615 3.525 -0.715 2.656a5.79 5.79 0 0 1 1.345 0.085l0.937 -3.414 -2.784 -1.481zm-2.81 7.654a4.623 4.623 0 0 1 -6.58 0 5.951 5.951 0 0 0 -8.403 0l0.91 0.91a4.657 4.657 0 0 1 6.582 0A5.9 5.9 0 0 0 12 20.748a5.9 5.9 0 0 0 4.197 -1.746 4.657 4.657 0 0 1 6.581 0l0.911 -0.91a5.951 5.951 0 0 0 -8.403 0m0.009 3.252a4.623 4.623 0 0 1 -6.581 0 5.874 5.874 0 0 0 -3.346 -1.652v1.286c0.885 0.17 1.745 0.596 2.435 1.277A5.9 5.9 0 0 0 12 24a5.9 5.9 0 0 0 4.197 -1.745 4.614 4.614 0 0 1 2.299 -1.243v-1.303a5.91 5.91 0 0 0 -3.21 1.635" fill="</defs>
" stroke-width="1"></path></svg>
